X:1
T:Brandywine
L:1/8
M:4/4
Z: Contributed 2018-01-24 19:08:02 by Duncan duncanb@udel.edu
K:G
B3 d BAGB | AGEG EDB,A, | G,A,B,C DEGA | B2 A6 | \
B3 d BAGB | AGEG EDB,A, | G,A,B,C DEGB | A2 G6 :: \
g3 a gedg | edef gaba | g2 ga gedB | A2 E6 | \
g3 a gedg | edef gaba | g2 ga gedB | A2 G6 | \
g3 a gedg | edef gaba | g2 ga gedB | AGEF G4 | \
g3 a gedg | edef gaba | g2 ga gedB | A2 G6 |
